src/epub/images/titlepage.svg

<?xml version="1.0" encoding="utf-8"?>
<svg xmlns="http://www.w3.org/2000/svg" xmlns:svg="http://www.w3.org/2000/svg" version="1.1" viewBox="0 0 1400 440">
	<title>The titlepage for the Standard Ebooks edition of The Man Who Was Thursday, by G. K. Chesterton</title>
	<g>
		<path d="m 314.91154,68.245613 18.33918,0 0,61.754387 17.59065,0 0,-61.754387 18.33918,0 0,-15.438597 -54.26901,0 0,15.438597 z"/>
		<path d="m 398.10599,99.029239 24.88889,0 0,30.970761 17.59064,0 0,-77.192984 -17.59064,0 0,30.783626 -24.88889,0 0,-30.783626 -17.59065,0 0,77.192984 17.59065,0 0,-30.970761 z"/>
		<path d="m 500.95102,52.807016 -44.16374,0 0,77.192984 44.16374,0 0,-15.4386 -26.5731,0 0,-15.532161 25.4503,0 0,-15.438597 -25.4503,0 0,-15.345029 26.5731,0 0,-15.438597 z"/>
		<path d="m 610.46126,130 17.59064,0 -6.92397,-77.192984 -18.71345,0 -17.12281,44.538013 -17.12281,-44.538013 -18.71345,0 L 542.53143,130 l 17.59065,0 3.64912,-45.754387 0.46784,0 15.81286,45.286547 10.47954,0 15.81286,-45.286547 0.46784,0 L 610.46126,130 Z"/>
		<path d="m 679.30337,52.807016 -16.2807,0 L 631.86478,130 l 18.90058,0 5.70761,-15.4386 29.38011,0 5.70761,15.4386 18.90058,0 -31.1579,-77.192984 z m 0.56141,46.31579 -17.40351,0 8.60819,-22.45614 0.18713,0 8.60819,22.45614 z"/>
		<path d="m 735.9715,82.093566 0.18714,0 L 766.8487,130 l 17.59064,0 0,-77.192984 -17.59064,0 0,47.906434 -0.18714,0 -30.69006,-47.906434 -17.59064,0 0,77.192984 17.59064,0 0,-47.906434 z"/>
		<path d="m 882.45543,130 19.46199,0 21.9883,-77.192984 -19.46199,0 -13.19298,52.959064 -0.46784,0 -14.03508,-52.959064 -13.28655,0 -14.03509,52.959064 -0.46784,0 -13.19298,-52.959064 -19.55556,0 L 838.19812,130 857.75367,130 870.10455,86.678362 882.45543,130 Z"/>
		<path d="m 950.71565,99.029239 24.88888,0 0,30.970761 17.59065,0 0,-77.192984 -17.59065,0 0,30.783626 -24.88888,0 0,-30.783626 -17.59065,0 0,77.192984 17.59065,0 0,-30.970761 z"/>
		<path d="m 1005.9349,91.356724 c 0,22.549706 16.0936,40.046786 38.924,40.046786 22.1754,0 38.8304,-17.49708 38.8304,-40.046786 0,-22.549708 -17.4035,-39.953217 -38.8304,-39.953217 -21.2398,0 -38.924,17.403509 -38.924,39.953217 z m 18.9942,0 c 0,-11.508772 6.3626,-23.017544 19.9298,-23.017544 13.6608,0 19.8363,11.508772 19.8363,23.017544 0,11.508776 -5.8012,23.017546 -19.8363,23.017546 -14.4094,0 -19.9298,-11.50877 -19.9298,-23.017546 z"/>
	</g>
	<g>
		<path d="m 346.80847,230 19.46199,0 21.98831,-77.19298 -19.46199,0 -13.19298,52.95906 -0.46784,0 -14.03509,-52.95906 -13.28655,0 -14.03509,52.95906 -0.46783,0 -13.19299,-52.95906 -19.55555,0 L 302.55116,230 322.10672,230 334.4576,186.67836 346.80847,230 Z"/>
		<path d="m 428.09356,152.80702 -16.2807,0 -31.1579,77.19298 18.90059,0 5.7076,-15.4386 29.38012,0 5.7076,15.4386 18.90059,0 -31.1579,-77.19298 z m 0.5614,46.31579 -17.4035,0 8.60818,-22.45614 0.18714,0 8.60818,22.45614 z"/>
		<path d="m 493.788,151.40351 c -12.44444,0 -25.16959,9.16959 -25.16959,23.57895 0,8.04678 5.4269,15.25146 14.69006,19.83625 9.16959,4.5848 17.40351,7.11111 17.40351,12.72515 0,7.20468 -7.29825,7.57895 -11.13451,7.57895 -8.60818,0 -18.90058,-8.70176 -18.90058,-8.70176 l -8.79532,14.78363 c 0,0 10.94737,10.19883 29.00585,10.19883 15.06432,0 29.09941,-6.45614 29.09941,-24.88889 0,-10.10526 -9.45029,-17.40351 -18.05848,-21.05263 -8.79532,-3.74269 -16.09357,-6.83041 -16.09357,-11.13451 0,-4.21052 3.18129,-6.92397 9.16959,-6.92397 7.95322,0 15.62574,5.33333 15.62574,5.33333 l 7.11111,-14.03509 c 0,0 -9.91813,-7.29824 -23.95322,-7.29824 z"/>
		<path d="m 554.35965,168.24561 18.33918,0 0,61.75439 17.59065,0 0,-61.75439 18.33918,0 0,-15.43859 -54.26901,0 0,15.43859 z"/>
		<path d="m 637.5541,199.02924 24.88889,0 0,30.97076 17.59065,0 0,-77.19298 -17.59065,0 0,30.78362 -24.88889,0 0,-30.78362 -17.59064,0 0,77.19298 17.59064,0 0,-30.97076 z"/>
		<path d="m 755.55701,152.80702 -17.59064,0 0,44.63158 c 0,12.91228 -3.92983,16.65497 -12.53802,16.65497 -8.60818,0 -12.53801,-3.74269 -12.53801,-16.65497 l 0,-44.63158 -17.59064,0 0,49.77777 c 0,19.08772 10.47953,28.81872 30.12865,28.81872 19.64913,0 30.12866,-9.731 30.12866,-28.81872 l 0,-49.77777 z"/>
		<path d="m 770.86257,152.80702 0,77.19298 17.59064,0 0,-30.50292 23.57895,30.50292 22.36257,0 -26.5731,-31.90643 c 9.4503,-2.99416 15.81287,-10.76024 15.81287,-22.36258 0,-15.15789 -10.8538,-22.92397 -25.16959,-22.92397 l -27.60234,0 z m 17.59064,34.24561 0,-20.21053 2.05848,0 c 6.64328,0 14.59649,0.46784 14.59649,10.10527 0,9.63742 -7.95321,10.10526 -14.59649,10.10526 l -2.05848,0 z"/>
		<path d="m 871.37574,151.40351 c -12.44445,0 -25.16959,9.16959 -25.16959,23.57895 0,8.04678 5.4269,15.25146 14.69006,19.83625 9.16959,4.5848 17.40351,7.11111 17.40351,12.72515 0,7.20468 -7.29825,7.57895 -11.13451,7.57895 -8.60819,0 -18.90058,-8.70176 -18.90058,-8.70176 l -8.79532,14.78363 c 0,0 10.94736,10.19883 29.00584,10.19883 15.06433,0 29.09942,-6.45614 29.09942,-24.88889 0,-10.10526 -9.45029,-17.40351 -18.05848,-21.05263 -8.79532,-3.74269 -16.09357,-6.83041 -16.09357,-11.13451 0,-4.21052 3.18129,-6.92397 9.16959,-6.92397 7.95322,0 15.62573,5.33333 15.62573,5.33333 l 7.11112,-14.03509 c 0,0 -9.91813,-7.29824 -23.95322,-7.29824 z"/>
		<path d="m 910.79677,152.80702 0,77.19298 22.36258,0 c 21.23976,0 38.92397,-16.09357 38.92397,-38.64328 0,-22.45614 -17.77778,-38.5497 -38.92397,-38.5497 l -22.36258,0 z m 17.59065,61.47368 0,-45.75439 2.71345,0 c 13.09941,0 21.9883,10.0117 21.9883,22.92398 -0.0936,12.91228 -8.98246,22.83041 -21.9883,22.83041 l -2.71345,0 z"/>
		<path d="m 1024.0804,152.80702 -16.2807,0 L 976.64183,230 l 18.90059,0 5.70758,-15.4386 29.3801,0 5.7076,15.4386 18.9006,0 -31.1579,-77.19298 z m 0.5614,46.31579 -17.4035,0 8.6082,-22.45614 0.1871,0 8.6082,22.45614 z"/>
		<path d="m 1046.3304,152.80702 28.4445,42.5731 0,34.61988 17.5906,0 0,-34.61988 28.4445,-42.5731 -21.1462,0 -16.0936,24.70175 -16.0936,-24.70175 -21.1462,0 z"/>
	</g>
	<g>
		<path d="m 379.7659,357.57895 -26.73684,0 0,10.17544 13.33333,0 c 0,7.08772 -6.24561,11.15789 -12.5614,11.15789 -8.14035,0 -14.73684,-8 -14.73684,-17.82456 0,-10.03509 6.59649,-18.10526 14.73684,-18.10526 5.12281,0 9.54386,2.03508 12.91228,7.43859 l 8.63158,-9.47368 c -5.05263,-6.10526 -12.14035,-9.89474 -22.31579,-9.89474 -16.2807,0 -28.21053,13.40351 -28.21053,30.03509 0,16.5614 12.63158,29.96491 28.21053,29.96491 11.36842,0 23.57895,-6.24561 26.73684,-20.91228 l 0,-12.5614 z"/>
		<path d="m 398.52906,374.98246 c -4.42105,0 -8,3.57894 -8,8.07017 0,4.42105 3.57895,8 8,8 4.49123,0 8.07017,-3.57895 8.07017,-8 0,-4.49123 -3.57894,-8.07017 -8.07017,-8.07017 z"/>
		<path d="m 496.9534,390 -26.94737,-30.45614 23.29825,-27.4386 -16,0 -19.85965,23.64913 0,-23.64913 -13.19298,0 0,57.89474 13.19298,0 0,-24.5614 21.33333,24.5614 18.17544,0 z"/>
		<path d="m 512.48738,374.98246 c -4.42105,0 -8,3.57894 -8,8.07017 0,4.42105 3.57895,8 8,8 4.49123,0 8.07018,-3.57895 8.07018,-8 0,-4.49123 -3.57895,-8.07017 -8.07018,-8.07017 z"/>
		<path d="m 586.82402,378.07018 c -13.26316,0 -19.08772,-9.26316 -19.08772,-17.05264 0,-7.71929 5.82456,-16.98245 19.08772,-16.98245 6.73684,0 11.36842,3.57895 11.36842,3.57895 l 5.61403,-11.22807 c 0,0 -6.45614,-5.33334 -19.01754,-5.33334 -16.42105,0 -31.36842,13.47369 -31.36842,30.10527 0,16.5614 15.01754,29.89473 31.36842,29.89473 12.5614,0 19.01754,-5.33333 19.01754,-5.33333 l -5.61403,-11.22807 c 0,0 -4.63158,3.57895 -11.36842,3.57895 z"/>
		<path d="m 627.11567,366.77193 18.66666,0 0,23.22807 13.19299,0 0,-57.89474 -13.19299,0 0,23.08772 -18.66666,0 0,-23.08772 -13.19298,0 0,57.89474 13.19298,0 0,-23.22807 z"/>
		<path d="m 705.49944,332.10526 -33.12281,0 0,57.89474 33.12281,0 0,-11.57895 -19.92982,0 0,-11.64912 19.08772,0 0,-11.57895 -19.08772,0 0,-11.50877 19.92982,0 0,-11.57895 z"/>
		<path d="m 739.41721,331.05263 c -9.33333,0 -18.87719,6.8772 -18.87719,17.68421 0,6.03509 4.07017,11.4386 11.01754,14.8772 6.8772,3.43859 13.05263,5.33333 13.05263,9.54385 0,5.40351 -5.47368,5.68422 -8.35087,5.68422 -6.45614,0 -14.17544,-6.52632 -14.17544,-6.52632 l -6.59649,11.08772 c 0,0 8.21052,7.64912 21.75438,7.64912 11.29825,0 21.82456,-4.8421 21.82456,-18.66666 0,-7.57895 -7.08771,-13.05264 -13.54385,-15.78948 -6.5965,-2.80702 -12.07018,-5.12281 -12.07018,-8.35088 0,-3.15789 2.38596,-5.19298 6.87719,-5.19298 5.96491,0 11.7193,4 11.7193,4 l 5.33333,-10.52631 c 0,0 -7.43859,-5.47369 -17.96491,-5.47369 z"/>
		<path d="m 763.15735,343.68421 13.75439,0 0,46.31579 13.19298,0 0,-46.31579 13.75439,0 0,-11.57895 -40.70176,0 0,11.57895 z"/>
		<path d="m 846.73299,332.10526 -33.1228,0 0,57.89474 33.1228,0 0,-11.57895 -19.92982,0 0,-11.64912 19.08772,0 0,-11.57895 -19.08772,0 0,-11.50877 19.92982,0 0,-11.57895 z"/>
		<path d="m 859.31743,332.10526 0,57.89474 13.19298,0 0,-22.87719 17.68421,22.87719 16.77193,0 -19.92982,-23.92982 c 7.08772,-2.24562 11.85965,-8.07018 11.85965,-16.77193 0,-11.36842 -8.14035,-17.19299 -18.8772,-17.19299 l -20.70175,0 z m 13.19298,25.68421 0,-15.15789 1.54386,0 c 4.98246,0 10.94737,0.35088 10.94737,7.57895 0,7.22807 -5.96491,7.57894 -10.94737,7.57894 l -1.54386,0 z"/>
		<path d="m 908.22861,343.68421 13.75439,0 0,46.31579 13.19298,0 0,-46.31579 13.75438,0 0,-11.57895 -40.70175,0 0,11.57895 z"/>
		<path d="m 953.89196,361.01754 c 0,16.91228 12.07017,30.03509 29.19298,30.03509 16.63158,0 29.12276,-13.12281 29.12276,-30.03509 0,-16.91228 -13.05258,-29.96491 -29.12276,-29.96491 -15.92982,0 -29.19298,13.05263 -29.19298,29.96491 z m 14.24561,0 c 0,-8.63157 4.77193,-17.26315 14.94737,-17.26315 10.24562,0 14.87719,8.63158 14.87719,17.26315 0,8.63158 -4.35087,17.26316 -14.87719,17.26316 -10.80702,0 -14.94737,-8.63158 -14.94737,-17.26316 z"/>
		<path d="m 1036.222,354.07018 0.1404,0 23.0175,35.92982 13.193,0 0,-57.89474 -13.193,0 0,35.92983 -0.1403,0 -23.0176,-35.92983 -13.193,0 0,57.89474 13.193,0 0,-35.92982 z"/>
	</g>
</svg>

<?xml version="1.0" encoding="utf-8"?>
<svg xmlns="http://www.w3.org/2000/svg" xmlns:svg="http://www.w3.org/2000/svg" version="1.1" viewBox="0 0 1400 440">
	<title>The titlepage for the Standard Ebooks edition of The Man Who Was Thursday, by G. K. Chesterton</title>
	<g aria-label="THE MAN WHO">
		<path d="m 314.91154,68.245613 h 18.33918 V 130 h 17.59065 V 68.245613 h 18.33918 V 52.807016 h -54.26901 z"/>
		<path d="m 398.10599,99.029239 h 24.88889 V 130 h 17.59064 V 52.807016 H 422.99488 V 83.590642 H 398.10599 V 52.807016 H 380.51534 V 130 h 17.59065 z"/>
		<path d="M 500.95102,52.807016 H 456.78728 V 130 h 44.16374 v -15.4386 h -26.5731 V 99.029239 h 25.4503 V 83.590642 h -25.4503 V 68.245613 h 26.5731 z"/>
		<path d="M 610.46126,130 H 628.0519 L 621.12793,52.807016 H 602.41448 L 585.29167,97.345029 568.16886,52.807016 H 549.45541 L 542.53143,130 h 17.59065 l 3.64912,-45.754387 h 0.46784 l 15.81286,45.286547 h 10.47954 L 606.3443,84.245613 h 0.46784 z"/>
		<path d="m 679.30337,52.807016 h -16.2807 L 631.86478,130 h 18.90058 l 5.70761,-15.4386 h 29.38011 L 691.56069,130 h 18.90058 z m 0.56141,46.31579 h -17.40351 l 8.60819,-22.45614 h 0.18713 z"/>
		<path d="m 735.9715,82.093566 h 0.18714 L 766.8487,130 h 17.59064 V 52.807016 H 766.8487 v 47.906434 h -0.18714 L 735.9715,52.807016 H 718.38086 V 130 h 17.59064 z"/>
		<path d="m 882.45543,130 h 19.46199 l 21.9883,-77.192984 h -19.46199 l -13.19298,52.959064 h -0.46784 L 876.74783,52.807016 h -13.28655 l -14.03509,52.959064 h -0.46784 L 835.76537,52.807016 H 816.20981 L 838.19812,130 h 19.55555 l 12.35088,-43.321638 z"/>
		<path d="m 950.71565,99.029239 h 24.88888 V 130 h 17.59065 V 52.807016 H 975.60453 V 83.590642 H 950.71565 V 52.807016 H 933.125 V 130 h 17.59065 z"/>
		<path d="m 1005.9349,91.356724 c 0,22.549706 16.0936,40.046786 38.924,40.046786 22.1754,0 38.8304,-17.49708 38.8304,-40.046786 0,-22.549708 -17.4035,-39.953217 -38.8304,-39.953217 -21.2398,0 -38.924,17.403509 -38.924,39.953217 z m 18.9942,0 c 0,-11.508772 6.3626,-23.017544 19.9298,-23.017544 13.6608,0 19.8363,11.508772 19.8363,23.017544 0,11.508776 -5.8012,23.017546 -19.8363,23.017546 -14.4094,0 -19.9298,-11.50877 -19.9298,-23.017546 z"/>
	</g>
	<g aria-label="WAS THURSDAY">
		<path d="m 346.80847,230 h 19.46199 l 21.98831,-77.19298 h -19.46199 l -13.19298,52.95906 h -0.46784 l -14.03509,-52.95906 h -13.28655 l -14.03509,52.95906 H 313.3114 L 300.11841,152.80702 H 280.56286 L 302.55116,230 h 19.55556 l 12.35088,-43.32164 z"/>
		<path d="m 428.09356,152.80702 h -16.2807 L 380.65496,230 h 18.90059 l 5.7076,-15.4386 h 29.38012 L 440.35087,230 h 18.90059 z m 0.5614,46.31579 h -17.4035 l 8.60818,-22.45614 h 0.18714 z"/>
		<path d="m 493.788,151.40351 c -12.44444,0 -25.16959,9.16959 -25.16959,23.57895 0,8.04678 5.4269,15.25146 14.69006,19.83625 9.16959,4.5848 17.40351,7.11111 17.40351,12.72515 0,7.20468 -7.29825,7.57895 -11.13451,7.57895 -8.60818,0 -18.90058,-8.70176 -18.90058,-8.70176 l -8.79532,14.78363 c 0,0 10.94737,10.19883 29.00585,10.19883 15.06432,0 29.09941,-6.45614 29.09941,-24.88889 0,-10.10526 -9.45029,-17.40351 -18.05848,-21.05263 -8.79532,-3.74269 -16.09357,-6.83041 -16.09357,-11.13451 0,-4.21052 3.18129,-6.92397 9.16959,-6.92397 7.95322,0 15.62574,5.33333 15.62574,5.33333 l 7.11111,-14.03509 c 0,0 -9.91813,-7.29824 -23.95322,-7.29824 z"/>
		<path d="m 554.35965,168.24561 h 18.33918 V 230 h 17.59065 v -61.75439 h 18.33918 v -15.43859 h -54.26901 z"/>
		<path d="m 637.5541,199.02924 h 24.88889 V 230 h 17.59065 v -77.19298 h -17.59065 v 30.78362 H 637.5541 V 152.80702 H 619.96346 V 230 h 17.59064 z"/>
		<path d="m 755.55701,152.80702 h -17.59064 v 44.63158 c 0,12.91228 -3.92983,16.65497 -12.53802,16.65497 -8.60818,0 -12.53801,-3.74269 -12.53801,-16.65497 V 152.80702 H 695.2997 v 49.77777 c 0,19.08772 10.47953,28.81872 30.12865,28.81872 19.64913,0 30.12866,-9.731 30.12866,-28.81872 z"/>
		<path d="M 770.86257,152.80702 V 230 h 17.59064 V 199.49708 L 812.03216,230 h 22.36257 l -26.5731,-31.90643 c 9.4503,-2.99416 15.81287,-10.76024 15.81287,-22.36258 0,-15.15789 -10.8538,-22.92397 -25.16959,-22.92397 z m 17.59064,34.24561 V 166.8421 h 2.05848 c 6.64328,0 14.59649,0.46784 14.59649,10.10527 0,9.63742 -7.95321,10.10526 -14.59649,10.10526 z"/>
		<path d="m 871.37574,151.40351 c -12.44445,0 -25.16959,9.16959 -25.16959,23.57895 0,8.04678 5.4269,15.25146 14.69006,19.83625 9.16959,4.5848 17.40351,7.11111 17.40351,12.72515 0,7.20468 -7.29825,7.57895 -11.13451,7.57895 -8.60819,0 -18.90058,-8.70176 -18.90058,-8.70176 l -8.79532,14.78363 c 0,0 10.94736,10.19883 29.00584,10.19883 15.06433,0 29.09942,-6.45614 29.09942,-24.88889 0,-10.10526 -9.45029,-17.40351 -18.05848,-21.05263 -8.79532,-3.74269 -16.09357,-6.83041 -16.09357,-11.13451 0,-4.21052 3.18129,-6.92397 9.16959,-6.92397 7.95322,0 15.62573,5.33333 15.62573,5.33333 l 7.11112,-14.03509 c 0,0 -9.91813,-7.29824 -23.95322,-7.29824 z"/>
		<path d="M 910.79677,152.80702 V 230 h 22.36258 c 21.23976,0 38.92397,-16.09357 38.92397,-38.64328 0,-22.45614 -17.77778,-38.5497 -38.92397,-38.5497 z m 17.59065,61.47368 v -45.75439 h 2.71345 c 13.09941,0 21.9883,10.0117 21.9883,22.92398 -0.0936,12.91228 -8.98246,22.83041 -21.9883,22.83041 z"/>
		<path d="m 1024.0804,152.80702 h -16.2807 L 976.64183,230 h 18.90059 l 5.70758,-15.4386 h 29.3801 L 1036.3377,230 h 18.9006 z m 0.5614,46.31579 h -17.4035 l 8.6082,-22.45614 h 0.1871 z"/>
		<path d="m 1046.3304,152.80702 28.4445,42.5731 V 230 h 17.5906 v -34.61988 l 28.4445,-42.5731 h -21.1462 l -16.0936,24.70175 -16.0936,-24.70175 z"/>
	</g>
	<g aria-label="G. K. CHESTERTON">
		<path d="m 379.7659,357.57895 h -26.73684 v 10.17544 h 13.33333 c 0,7.08772 -6.24561,11.15789 -12.5614,11.15789 -8.14035,0 -14.73684,-8 -14.73684,-17.82456 0,-10.03509 6.59649,-18.10526 14.73684,-18.10526 5.12281,0 9.54386,2.03508 12.91228,7.43859 l 8.63158,-9.47368 c -5.05263,-6.10526 -12.14035,-9.89474 -22.31579,-9.89474 -16.2807,0 -28.21053,13.40351 -28.21053,30.03509 0,16.5614 12.63158,29.96491 28.21053,29.96491 11.36842,0 23.57895,-6.24561 26.73684,-20.91228 z"/>
		<path d="m 398.52906,374.98246 c -4.42105,0 -8,3.57894 -8,8.07017 0,4.42105 3.57895,8 8,8 4.49123,0 8.07017,-3.57895 8.07017,-8 0,-4.49123 -3.57894,-8.07017 -8.07017,-8.07017 z"/>
		<path d="m 496.9534,390 -26.94737,-30.45614 23.29825,-27.4386 h -16 l -19.85965,23.64913 V 332.10526 H 444.25165 V 390 h 13.19298 V 365.4386 L 478.77796,390 Z"/>
		<path d="m 512.48738,374.98246 c -4.42105,0 -8,3.57894 -8,8.07017 0,4.42105 3.57895,8 8,8 4.49123,0 8.07018,-3.57895 8.07018,-8 0,-4.49123 -3.57895,-8.07017 -8.07018,-8.07017 z"/>
		<path d="m 586.82402,378.07018 c -13.26316,0 -19.08772,-9.26316 -19.08772,-17.05264 0,-7.71929 5.82456,-16.98245 19.08772,-16.98245 6.73684,0 11.36842,3.57895 11.36842,3.57895 l 5.61403,-11.22807 c 0,0 -6.45614,-5.33334 -19.01754,-5.33334 -16.42105,0 -31.36842,13.47369 -31.36842,30.10527 0,16.5614 15.01754,29.89473 31.36842,29.89473 12.5614,0 19.01754,-5.33333 19.01754,-5.33333 l -5.61403,-11.22807 c 0,0 -4.63158,3.57895 -11.36842,3.57895 z"/>
		<path d="m 627.11567,366.77193 h 18.66666 V 390 h 13.19299 v -57.89474 h -13.19299 v 23.08772 H 627.11567 V 332.10526 H 613.92269 V 390 h 13.19298 z"/>
		<path d="M 705.49944,332.10526 H 672.37663 V 390 h 33.12281 v -11.57895 h -19.92982 v -11.64912 h 19.08772 v -11.57895 h -19.08772 v -11.50877 h 19.92982 z"/>
		<path d="m 739.41721,331.05263 c -9.33333,0 -18.87719,6.8772 -18.87719,17.68421 0,6.03509 4.07017,11.4386 11.01754,14.8772 6.8772,3.43859 13.05263,5.33333 13.05263,9.54385 0,5.40351 -5.47368,5.68422 -8.35087,5.68422 -6.45614,0 -14.17544,-6.52632 -14.17544,-6.52632 l -6.59649,11.08772 c 0,0 8.21052,7.64912 21.75438,7.64912 11.29825,0 21.82456,-4.8421 21.82456,-18.66666 0,-7.57895 -7.08771,-13.05264 -13.54385,-15.78948 -6.5965,-2.80702 -12.07018,-5.12281 -12.07018,-8.35088 0,-3.15789 2.38596,-5.19298 6.87719,-5.19298 5.96491,0 11.7193,4 11.7193,4 l 5.33333,-10.52631 c 0,0 -7.43859,-5.47369 -17.96491,-5.47369 z"/>
		<path d="m 763.15735,343.68421 h 13.75439 V 390 h 13.19298 v -46.31579 h 13.75439 v -11.57895 h -40.70176 z"/>
		<path d="m 846.73299,332.10526 h -33.1228 V 390 h 33.1228 v -11.57895 h -19.92982 v -11.64912 h 19.08772 v -11.57895 h -19.08772 v -11.50877 h 19.92982 z"/>
		<path d="M 859.31743,332.10526 V 390 h 13.19298 V 367.12281 L 890.19462,390 h 16.77193 l -19.92982,-23.92982 c 7.08772,-2.24562 11.85965,-8.07018 11.85965,-16.77193 0,-11.36842 -8.14035,-17.19299 -18.8772,-17.19299 z m 13.19298,25.68421 v -15.15789 h 1.54386 c 4.98246,0 10.94737,0.35088 10.94737,7.57895 0,7.22807 -5.96491,7.57894 -10.94737,7.57894 z"/>
		<path d="M 908.22861,343.68421 H 921.983 V 390 h 13.19298 v -46.31579 h 13.75438 v -11.57895 h -40.70175 z"/>
		<path d="m 953.89196,361.01754 c 0,16.91228 12.07017,30.03509 29.19298,30.03509 16.63158,0 29.12276,-13.12281 29.12276,-30.03509 0,-16.91228 -13.05258,-29.96491 -29.12276,-29.96491 -15.92982,0 -29.19298,13.05263 -29.19298,29.96491 z m 14.24561,0 c 0,-8.63157 4.77193,-17.26315 14.94737,-17.26315 10.24562,0 14.87719,8.63158 14.87719,17.26315 0,8.63158 -4.35087,17.26316 -14.87719,17.26316 -10.80702,0 -14.94737,-8.63158 -14.94737,-17.26316 z"/>
		<path d="m 1036.222,354.07018 h 0.1404 L 1059.3799,390 h 13.193 v -57.89474 h -13.193 v 35.92983 h -0.1403 l -23.0176,-35.92983 h -13.193 V 390 h 13.193 z"/>
	</g>
</svg>
